X: 080711
T: Humors of Tullycrine
S: "Sully's Irish Banjo Book" (T.Sullivan)
Z: B.Black
L: 1/8
M: C|
R: hornpipe
K: Ador
(3EFG|A2 AB cBcd|eaag (3efg dB|(3cdc Ac BAGA|\
(3B^cd de BDAG|
EAAB cBcd|eaag (3efg dB|c2 Ac BAGB|(3ABA AG A2 :|
(3B^cd|eaab ageg|(3g^ga ab a=g e2|(3efg fa gedg|\
(3efg fa gedB|
AGAB cBcd|eaag (3efg dB|c2 Ac BAGB|(3ABA AG A2:|
